svg/view_day_outline.svg

<svg xmlns="http://www.w3.org/2000/svg" viewBox="0 0 24 24"><path d="M21 18H2v2h19zm-2-8v4H4v-4zm1-2H3c-.55 0-1 .45-1 1v6c0 .55.45 1 1 1h17c.55 0 1-.45 1-1V9c0-.55-.45-1-1-1m1-4H2v2h19z"/></svg>

<?xml version="1.0" encoding="UTF-8"?><!DOCTYPE svg PUBLIC "-//W3C//DTD SVG 1.1//EN" "http://www.w3.org/Graphics/SVG/1.1/DTD/svg11.dtd"><svg xmlns="http://www.w3.org/2000/svg" xmlns:xlink="http://www.w3.org/1999/xlink" version="1.1" id="mdi-view-day-outline" width="24" height="24" viewBox="0 0 24 24"><path d="M21 18H2V20H21V18M19 10V14H4V10H19M20 8H3C2.45 8 2 8.45 2 9V15C2 15.55 2.45 16 3 16H20C20.55 16 21 15.55 21 15V9C21 8.45 20.55 8 20 8M21 4H2V6H21V4Z" /></svg>
